Numix/16/status/indicator-keyboard-Hu-1.svg

<?xml version="1.0" encoding="UTF-8" standalone="no"?>
<svg
   xmlns:dc="http://purl.org/dc/elements/1.1/"
   xmlns:cc="http://creativecommons.org/ns#"
   xmlns:rdf="http://www.w3.org/1999/02/22-rdf-syntax-ns#"
   xmlns:svg="http://www.w3.org/2000/svg"
   xmlns="http://www.w3.org/2000/svg"
   xmlns:sodipodi="http://sodipodi.sourceforge.net/DTD/sodipodi-0.dtd"
   xmlns:inkscape="http://www.inkscape.org/namespaces/inkscape"
   viewBox="0 0 16 16"
   id="svg2"
   version="1.1"
   inkscape:version="0.91 r13725"
   sodipodi:docname="indicator-keyboard-Hu-1.svg">
  <metadata
     id="metadata14">
    <rdf:RDF>
      <cc:Work
         rdf:about="">
        <dc:format>image/svg+xml</dc:format>
        <dc:type
           rdf:resource="http://purl.org/dc/dcmitype/StillImage" />
      </cc:Work>
    </rdf:RDF>
  </metadata>
  <defs
     id="defs12" />
  <sodipodi:namedview
     pagecolor="#ffffff"
     bordercolor="#666666"
     borderopacity="1"
     objecttolerance="10"
     gridtolerance="10"
     guidetolerance="10"
     inkscape:pageopacity="0"
     inkscape:pageshadow="2"
     inkscape:window-width="640"
     inkscape:window-height="480"
     id="namedview10"
     showgrid="false"
     inkscape:zoom="14.75"
     inkscape:cx="8"
     inkscape:cy="8"
     inkscape:window-x="65"
     inkscape:window-y="24"
     inkscape:window-maximized="0"
     inkscape:current-layer="svg2" />
  <path
     style="fill:#ececec;fill-opacity:1"
     d="M 1.5996094 0 C 0.71320937 2.9605947e-16 0 0.71320937 0 1.5996094 L 0 14.400391 C 2.9605947e-16 15.286791 0.71320937 16 1.5996094 16 L 14.400391 16 C 15.286791 16 16 15.286791 16 14.400391 L 16 1.5996094 C 16 0.71320937 15.286791 0 14.400391 0 L 1.5996094 0 z M 1.703125 4.859375 L 2.3164062 4.859375 L 2.3164062 7.5683594 L 5.6992188 7.5683594 L 5.6992188 4.859375 L 6.3125 4.859375 L 6.3125 11.095703 L 5.6992188 11.095703 L 5.6992188 8.0996094 L 2.3164062 8.0996094 L 2.3164062 11.095703 L 1.703125 11.095703 L 1.703125 4.859375 z M 7.8359375 6.4433594 L 8.421875 6.4433594 L 8.421875 8.8632812 C 8.421875 9.1932813 8.4461406 9.4731719 8.4941406 9.7011719 C 8.5421406 9.9291721 8.6185625 10.115766 8.7265625 10.259766 C 8.8345625 10.397766 8.972625 10.498453 9.140625 10.564453 C 9.314625 10.624453 9.5254844 10.654297 9.7714844 10.654297 C 10.047485 10.654297 10.286234 10.639375 10.490234 10.609375 C 10.694234 10.579375 10.824906 10.553297 10.878906 10.529297 L 10.878906 6.4433594 L 11.462891 6.4433594 L 11.462891 10.933594 C 11.288891 10.981594 11.055719 11.035703 10.761719 11.095703 C 10.467719 11.155703 10.107641 11.185547 9.6816406 11.185547 C 9.3336406 11.185547 9.0425938 11.135203 8.8085938 11.033203 C 8.5745938 10.931203 8.3842344 10.787563 8.2402344 10.601562 C 8.0962344 10.415562 7.9917813 10.189781 7.9257812 9.9257812 C 7.8657813 9.6617812 7.8359375 9.3707344 7.8359375 9.0527344 L 7.8359375 6.4433594 z M 14.027344 8.8417969 L 14.296875 8.8417969 L 14.296875 12.896484 L 13.916016 12.896484 L 13.916016 9.421875 C 13.873116 9.468675 13.816294 9.5157063 13.746094 9.5664062 C 13.679794 9.6171063 13.603378 9.66805 13.517578 9.71875 C 13.431778 9.76555 13.3436 9.812575 13.25 9.859375 C 13.1564 9.902275 13.06235 9.9375437 12.96875 9.9648438 L 12.857422 9.671875 C 13.091422 9.5899751 13.299122 9.4880813 13.482422 9.3632812 C 13.665722 9.2345813 13.847944 9.0601969 14.027344 8.8417969 z "
     id="path4" />
</svg>

<svg xmlns="http://www.w3.org/2000/svg" viewBox="0 0 16 16">
 <path d="m 1.6 0 c -0.886 0 -1.6 0.713 -1.6 1.6 l 0 12.801 c 0 0.886 0.713 1.6 1.6 1.6 l 12.801 0 c 0.886 0 1.6 -0.713 1.6 -1.6 l 0 -12.801 c 0 -0.886 -0.713 -1.6 -1.6 -1.6 l -12.801 0 z m 0.104 4.859 l 0.613 0 l 0 2.709 l 3.383 0 l 0 -2.709 l 0.613 0 l 0 6.236 l -0.613 0 l 0 -2.996 l -3.383 0 l 0 2.996 l -0.613 0 l 0 -6.236 z m 6.133 1.584 l 0.586 0 l 0 2.42 c 0 0.33 0.024 0.61 0.072 0.838 c 0.048 0.228 0.124 0.415 0.232 0.559 c 0.108 0.138 0.246 0.239 0.414 0.305 c 0.174 0.06 0.385 0.09 0.631 0.09 c 0.276 0 0.515 -0.015 0.719 -0.045 c 0.204 -0.03 0.335 -0.056 0.389 -0.08 l 0 -4.086 l 0.584 0 l 0 4.49 c -0.174 0.048 -0.407 0.102 -0.701 0.162 c -0.294 0.06 -0.654 0.09 -1.08 0.09 c -0.348 0 -0.639 -0.05 -0.873 -0.152 c -0.234 -0.102 -0.424 -0.246 -0.568 -0.432 c -0.144 -0.186 -0.248 -0.412 -0.314 -0.676 c -0.06 -0.264 -0.09 -0.555 -0.09 -0.873 l 0 -2.609 z m 6.191 2.398 l 0.27 0 l 0 4.055 l -0.381 0 l 0 -3.475 c -0.043 0.047 -0.1 0.094 -0.17 0.145 c -0.066 0.051 -0.143 0.102 -0.229 0.152 c -0.086 0.047 -0.174 0.094 -0.268 0.141 c -0.094 0.043 -0.188 0.078 -0.281 0.105 l -0.111 -0.293 c 0.234 -0.082 0.442 -0.184 0.625 -0.309 c 0.183 -0.129 0.366 -0.303 0.545 -0.521 z" style="fill:#ececec;fill-opacity:1"/>
</svg>
